X: 3
T: The Boys Of Portaferry
R: reel
M: 4/4
L: 1/8
K: Gmaj
BA | G3 B AGAB | G2 BG AGED | G3 B AB c2 | dBGB c2 :|BA | Bdgd Bdgd | Bdgd (3cdc BA | Bdgd e2 ef | gedB c2 :|]


Tune 1436	Setting 14815

